!!!COM: Palestrina, Giovanni Perluigi da
!!!OPR: De feria
!!!OTL: Sanctus
**kern	**kern	**kern	**kern
*Ibass	*Itenor	*Icalto	*Icant
!Bassus	!Tenor	!Altus	!Cantus
*clefF4	*clefGv2	*clefG2	*clefG2
*k[]	*k[]	*k[]	*k[]
*E:phr	*E:phr	*E:phr	*E:phr
*M4/2	*M4/2	*M4/2	*M4/2
=1	=1	=1	=1
0r	0e	0r	0r
=2	=2	=2	=2
0r	1e	0e	0r
.	2.A	.	.
.	4B	.	.
=3	=3	=3	=3
0A	4c	1e	0r
.	4d	.	.
.	2.e	.	.
.	.	2.A	.
.	4c	.	.
.	2f	.	.
.	.	4B	.
=4	=4	=4	=4
[0A	2e	4c	0a
.	.	4d	.
.	2A	2.e	.
.	2c	.	.
.	.	4c	.
.	[2d	2f	.
=5	=5	=5	=5
1A]	2d]	1e	[0a
.	2c	.	.
2.D	2d	2.d	.
.	[2f	.	.
4E	.	8c	.
.	.	8B	.
=6	=6	=6	=6
4F	2f]	4A	0a]
4G	.	4B	.
1A	4e	4c	.
.	4d	4d	.
.	1c	2e	.
2F	.	[2f	.
=7	=7	=7	=7
1B-	1d	4f]	0r
.	.	4e	.
.	.	1d	.
1A	1e	.	.
.	.	2c#	.
=8	=8	=8	=8
0D	1.d	1d	0f
.	.	1A	.
.	2c	.	.
=9	=9	=9	=9
1E	1B	1e	1g
1AA	1A	1c	1a
=10	=10	=10	=10
1r	0c	2.A	1.a
.	.	4G	.
[1F	.	4A	.
.	.	4B	.
.	.	[2c	2a
=11	=11	=11	=11
1F]	1d	2c]	1a
.	.	4B	.
.	.	4A	.
1G	1e	1B	1g
=12	=12	=12	=12
1A	1.e	1c	2e
.	.	.	2.a
[1A	.	1r	.
.	.	.	4b
.	2e	.	2cc
=13	=13	=13	=13
2A]	1e	0c	2a
2A	.	.	1cc
1A	1f#	.	.
.	.	.	4b
.	.	.	4a
=14	=14	=14	=14
1G	1g	1d	1b
1C	2.g	1e	2.cc
.	4f	.	8b
.	.	.	8a
=15	=15	=15	=15
2.c	4e	1.e	2g
.	4d	.	.
.	2c	.	2a
8B	.	.	.
8A	.	.	.
2G	2B	.	2b
2A	[2A	2e	[2cc
=16	=16	=16	=16
1E	2A]	1e	2cc]
.	2G#	.	2.b
1F	1A	2c	.
.	.	.	4a
.	.	2d	[2a
=17	=17	=17	=17
0E	0B	1e	2a]
.	.	.	4g
.	.	.	4f#
.	.	1e	1g#
=18	=18	=18	=18
1AA	2A	2.c	[0a
.	2e	.	.
.	.	4B	.
2r	2e	2A	.
2A	2e	2c	.
=19	=19	=19	=19
2A	2f	2c	1a]
2A	2e	2c	.
2.B-	2d	2.d	1r
.	2f	.	.
4A	.	4c	.
=20	=20	=20	=20
2G	2e	2B-	0r
2F	1d	2A	.
1E	.	1G	.
.	2c#	.	.
=21	=21	=21	=21
1D	1d	2A	0f
.	.	2d	.
1r	1r	2d	.
.	.	2d	.
=22	=22	=22	=22
2r	0r	2.e	0g
2E	.	.	.
.	.	4d	.
2E	.	2c	.
2E	.	2B	.
=23	=23	=23	=23
2.F	1r	2A	0a
.	.	1d	.
4G	.	.	.
[1A	2r	.	.
.	2e	4c	.
.	.	4B	.
=24	=24	=24	=24
1A]	2e	1c	1a
.	2e	.	.
2.D	2.f	2.d	1a
4E	4e	8c	.
.	.	8B	.
=25	=25	=25	=25
4F	2d	1A	1a
4G	.	.	.
1A	2c	.	.
.	1B	1E	1r
2G#	.	.	.
=26	=26	=26	=26
1A	4A	2r	[0a
.	4B	.	.
.	4c	2.A	.
.	4d	.	.
2r	1e	.	.
.	.	4A	.
[2A	.	2A	.
=27	=27	=27	=27
4A]	2r	2.c	1a]
4A	.	.	.
2A	2.A	.	.
.	.	4d	.
2.c	.	1e	[1a
.	4A	.	.
.	2A	.	.
4B	.	.	.
=28	=28	=28	=28
2.A	2.c	2f	0a]
.	.	1e	.
4G	4B	.	.
1F	1A	.	.
.	.	2d	.
=29	=29	=29	=29
1E	2B	1e	1g
.	2.e	.	.
1r	.	1A	[1cc
.	4e	.	.
.	2e	.	.
=30	=30	=30	=30
0r	2.f	2A	2cc]
.	.	2F	2cc
.	4e	.	.
.	2d	2G	2b
.	2c	2A	[2a
=31	=31	=31	=31
1E	0B	0e	2a]
.	.	.	4g
.	.	.	4f#
2E	.	.	1g#
2E	.	.	.
=32	=32	=32	=32
2F	2A	0r	0a
2D	2.d	.	.
1F	.	.	.
.	4c	.	.
.	4c	.	.
.	8B	.	.
.	8A	.	.
=33	=33	=33	=33
0E	2G#	1B	0r
.	1A	.	.
.	.	2B	.
.	2G#	2B	.
=34	=34	=34	=34
0r	0A	2c	0e
.	.	2A	.
.	.	1c	.
=35	=35	=35	=35
2r	1E	1B	0g
2E	.	.	.
2E	1r	2.e	.
2E	.	.	.
.	.	4d	.
=36	=36	=36	=36
2F	0r	4c	0a
.	.	4A	.
4D	.	1d	.
4E	.	.	.
4F	.	.	.
4G	.	.	.
4A	.	4c	.
4B	.	4B	.
=37	=37	=37	=37
2c#	1e	0A	0a
1d	.	.	.
.	2e	.	.
2c#	2e	.	.
=38	=38	=38	=38
1d	2f	2r	0a
.	2d	2d	.
1D	1f	2d	.
.	.	2A	.
=39	=39	=39	=39
2r	2.e	2c	0g
2E	.	2B	.
.	4d	.	.
2E	2c	1e	.
2E	2B	.	.
=40	=40	=40	=40
2F	2A	2c	2.a
2D	2.d	2.f	.
.	.	.	4g
1F	.	.	4a
.	4c	4e	4b
.	4c	4c	[2cc
.	8B	4d	.
.	8A	.	.
=41	=41	=41	=41
0E	2G#	0e	2cc]
.	1A	.	4b
.	.	.	4a
.	.	.	2cc
.	2G	.	[2b
=42	=42	=42	=42
1E	1c	2r	4b]
.	.	.	4a
.	.	2e	1a
1E	1B	2e	.
.	.	2e	2g#
=43	=43	=43	=43
0D	0d	2f	[0a
.	.	2d	.
.	.	1f	.
=44	=44	=44	=44
[0A	[0c#	[0e	1a_
.	.	.	1a_
=45	=45	=45	=45
0A]	0c#]	0e]	0a]
==	==	==	==
*-	*-	*-	*-
!!!CDT: 1525/^1526/-1594/2/2
!!!OCY: Italia
!!!AGN: Mass (Paraphrase)
!!!AST: renaissance, vocal
!!!ASW: Gregorian Mass
!!!PWK: Masses, Book 3
!!!RNB: Cadence finals: A
!!!YOR: Le Opere Complete, v. 6, p. 84
!!!YOO: Rome, Italy: Fratelli Scalera
!!!END: 1992//
!!!EED: John Miller
!!!YEC: Copyright 2000, John Miller
!!!YEN: United States of America
!!!YEM: Rights to all derivative electronic formats reserved.
!!!YEM: Refer to licensing agreement for further details.
!!!YEM: This file must be accompanied by the licensing agreement.
!!!YEM: A copy of the licensing agreement may be found at http://www.music-cog.ohio-state.edu/HumdrumDatabases/Palestrina/license.txt
!!!EMD: converted to Humdrum by Bret Aarden
